icons/extensions/xml.svg

<?xml version="1.0" encoding="UTF-8"?>
<svg width="42px" height="42px" viewBox="0 0 42 42" version="1.1" xmlns="http://www.w3.org/2000/svg" xmlns:xlink="http://www.w3.org/1999/xlink">
    <!-- Generator: Sketch 44.1 (41455) - http://www.bohemiancoding.com/sketch -->
    <desc>Created with Sketch.</desc>
    <defs>
        <path d="M0,2.00494659 C0,0.897645164 0.889763236,0 2.00359486,0 L24.004543,0 C24.5543187,0 25.3127724,0.312772393 25.7057732,0.70577316 L29.2942268,4.29422684 C29.6840146,4.68401459 30,5.45092539 30,5.99477117 L30,22.0025781 C30,23.1057238 29.1021596,24 28.008383,24 L1.99161703,24 C0.891677316,24 0,23.1029738 0,21.9950534 L0,2.00494659 Z" id="path-1"></path>
    </defs>
    <g id="扩展名-(icons/extensions-5-10)" stroke="none" stroke-width="1" fill="none" fill-rule="evenodd">
        <g id="XML">
            <g id="Group" transform="translate(6.000000, 9.000000)">
                <g id="Mask">
                    <use fill="#1B1B1B" fill-rule="evenodd" xlink:href="#path-1"></use>
                    <path stroke="#469CEA" stroke-width="2" d="M1,2.00494659 L1,21.9950534 C1,22.5519156 1.44520033,23 1.99161703,23 L28.008383,23 C28.5518298,23 29,22.5514822 29,22.0025781 L29,5.99477117 C29,5.71418799 28.7879905,5.20220404 28.5871201,5.00133362 L24.9986664,1.41287994 C24.7943372,1.20855074 24.2907084,1 24.004543,1 L2.00359486,1 C1.44527569,1 1,1.44669671 1,2.00494659 Z"></path>
                </g>
                <path d="M12.3192319,7.57354821 L9.22065556,12.0000859 L12.3192319,16.4266235 C12.6359464,16.8790728 12.5259116,17.5026033 12.0734623,17.8193178 C11.621013,18.1360323 10.9974826,18.0259975 10.6807681,17.5735482 L7.18076808,12.5735482 C6.93974397,12.2292281 6.93974397,11.7709437 7.18076808,11.4266235 L10.6807681,6.42662352 C10.9974826,5.97417422 11.621013,5.86413943 12.0734623,6.18085394 C12.5259116,6.49756845 12.6359464,7.12109891 12.3192319,7.57354821 Z M18.1807681,16.4266235 L21.2793444,12.0000859 L18.1807681,7.57354821 C17.8640536,7.12109891 17.9740884,6.49756845 18.4265377,6.18085394 C18.878987,5.86413943 19.5025174,5.97417422 19.8192319,6.42662352 L23.3192319,11.4266235 C23.560256,11.7709437 23.560256,12.2292281 23.3192319,12.5735482 L19.8192319,17.5735482 C19.5025174,18.0259975 18.878987,18.1360323 18.4265377,17.8193178 C17.9740884,17.5026033 17.8640536,16.8790728 18.1807681,16.4266235 Z" id="Combined-Shape" fill="#469CEA" fill-rule="nonzero"></path>
            </g>
        </g>
    </g>
</svg>

<svg viewBox="0 0 42 42" xmlns="http://www.w3.org/2000/svg" xmlns:xlink="http://www.w3.org/1999/xlink"><defs><path d="M0 2.005A2 2 0 0 1 2.004 0h22c.55 0 1.309.313 1.702.706l3.588 3.588c.39.39.706 1.157.706 1.7v16.009A1.998 1.998 0 0 1 28.008 24H1.992C.892 24 0 23.103 0 21.995V2.005z" id="a"/></defs><g fill="none" fill-rule="evenodd"><g transform="translate(6 9)"><use fill="#1B1B1B" xlink:href="#a"/><path stroke="#469CEA" stroke-width="2" d="M1 2.005v19.99A.998.998 0 0 0 1.992 23h26.016a.999.999 0 0 0 .992-.997V5.995c0-.28-.212-.793-.413-.994L25 1.413C24.794 1.209 24.29 1 24.005 1H2.004A1 1 0 0 0 1 2.005z"/></g><path d="M18.32 16.574L15.22 21l3.1 4.427a1 1 0 0 1-1.64 1.147l-3.5-5a1 1 0 0 1 0-1.147l3.5-5a1 1 0 1 1 1.64 1.147zm5.86 8.853L27.28 21l-3.1-4.426a1 1 0 0 1 1.64-1.147l3.5 5a1 1 0 0 1 0 1.147l-3.5 5a1 1 0 1 1-1.64-1.147z" fill="#469CEA" fill-rule="nonzero"/></g></svg>
